src/assets/images/homepage/home/partner_logo_6.svg

<svg fill="none" height="89" viewBox="0 0 89 89" width="89" xmlns="http://www.w3.org/2000/svg" xmlns:xlink="http://www.w3.org/1999/xlink"><clipPath id="a"><path d="m0 0h48v47h-48z" transform="matrix(1 0 0 -1 20.2197 68)"/></clipPath><circle cx="44.2225" cy="44.2225" fill="#000" r="44.2225"/><g clip-path="url(#a)" fill="#fff"><path d="m51.1452 52.3447h-13.8514c-.5828 0-1.0628-.4703-1.0628-1.0414v-13.5726c0-.5711.48-1.0414 1.0628-1.0414h13.8514c.5829 0 1.0629.4703 1.0629 1.0414v13.5726c0 .5711-.48 1.0414-1.0629 1.0414z"/><path d="m35.134 68h-13.8514c-.5829 0-1.0629-.4703-1.0629-1.0415v-13.5725c0-.5711.48-1.0415 1.0629-1.0415h13.8514c.5829 0 1.0629.4704 1.0629 1.0415v13.5725c0 .5712-.48 1.0415-1.0629 1.0415z"/><path d="m67.157 68h-13.8515c-.5828 0-1.0628-.4703-1.0628-1.0415v-13.5725c0-.5711.48-1.0415 1.0628-1.0415h13.8515c.5828 0 1.0628.4704 1.0628 1.0415v13.5725c0 .5712-.48 1.0415-1.0628 1.0415z"/><path d="m35.134 36.6553h-13.8514c-.5829 0-1.0629-.4704-1.0629-1.0415v-13.5725c0-.5712.48-1.0415 1.0629-1.0415h13.8514c.5829 0 1.0629.4703 1.0629 1.0415v13.5725c0 .5711-.48 1.0415-1.0629 1.0415z"/><path d="m67.157 36.6553h-13.8515c-.5828 0-1.0628-.4704-1.0628-1.0415v-13.5725c0-.5712.48-1.0415 1.0628-1.0415h13.8515c.5828 0 1.0628.4703 1.0628 1.0415v13.5725c0 .5711-.48 1.0415-1.0628 1.0415z"/></g></svg>

<svg width="89" height="89" viewBox="0 0 89 89" fill="none" xmlns="http://www.w3.org/2000/svg">
<circle cx="44.2225" cy="44.2225" r="44.2225" fill="black"/>
<g clip-path="url(#clip0_5626_12263)">
<path d="M51.1452 52.3447H37.2938C36.711 52.3447 36.231 51.8744 36.231 51.3033V37.7307C36.231 37.1596 36.711 36.6893 37.2938 36.6893H51.1452C51.7281 36.6893 52.2081 37.1596 52.2081 37.7307V51.3033C52.2081 51.8744 51.7281 52.3447 51.1452 52.3447Z" fill="white"/>
<path d="M35.134 68H21.2826C20.6997 68 20.2197 67.5297 20.2197 66.9585V53.386C20.2197 52.8149 20.6997 52.3445 21.2826 52.3445H35.134C35.7169 52.3445 36.1969 52.8149 36.1969 53.386V66.9585C36.1969 67.5297 35.7169 68 35.134 68Z" fill="white"/>
<path d="M67.157 68H53.3055C52.7227 68 52.2427 67.5297 52.2427 66.9585V53.386C52.2427 52.8149 52.7227 52.3445 53.3055 52.3445H67.157C67.7398 52.3445 68.2198 52.8149 68.2198 53.386V66.9585C68.2198 67.5297 67.7398 68 67.157 68Z" fill="white"/>
<path d="M35.134 36.6553H21.2826C20.6997 36.6553 20.2197 36.1849 20.2197 35.6138V22.0413C20.2197 21.4701 20.6997 20.9998 21.2826 20.9998H35.134C35.7169 20.9998 36.1969 21.4701 36.1969 22.0413V35.6138C36.1969 36.1849 35.7169 36.6553 35.134 36.6553Z" fill="white"/>
<path d="M67.157 36.6553H53.3055C52.7227 36.6553 52.2427 36.1849 52.2427 35.6138V22.0413C52.2427 21.4701 52.7227 20.9998 53.3055 20.9998H67.157C67.7398 20.9998 68.2198 21.4701 68.2198 22.0413V35.6138C68.2198 36.1849 67.7398 36.6553 67.157 36.6553Z" fill="white"/>
</g>
<defs>
<clipPath id="clip0_5626_12263">
<rect width="48" height="47" fill="white" transform="matrix(1 0 0 -1 20.2197 68)"/>
</clipPath>
</defs>
</svg>
